24x24/actions/draw-path.svg

<svg viewBox="0 0 24 24" xmlns="http://www.w3.org/2000/svg"><path d="m4 4v3h1v7.996l-.996.996h-.004v4.008h4.008v-.004l1-1h7.992v1.004h3v-3h-3v1h-6.996l9.996-9.996-.002-.002.002-.002-4-4-.002.002-.002-.002-9.996 9.996v-6.996h1v-3zm1 1h1v1h-1zm10.998.412 2.59 2.59-2 2-6.793 6.793-.795-.795-1.795-1.795 6.793-6.793zm2.002 12.588h1v1h-1z" fill="#8b9cbe"/></svg>

<svg xmlns="http://www.w3.org/2000/svg" viewBox="0 0 24 24"><path style="fill:currentColor;fill-opacity:1;stroke:none;color:#8b9cbe" d="M4 4v3h1v7.996l-.996.996H4V20h4.008v-.004l1-1H17V20h3v-3h-3v1h-6.996L20 8.004l-.002-.002L20 8l-4-4-.002.002L15.996 4 6 13.996V7h1V4H4zm1 1h1v1H5V5zm10.998.412 2.59 2.59-2 2-6.793 6.793L9 16l-1.795-1.795 6.793-6.793 2-2zM18 18h1v1h-1v-1z"/></svg>
